assets/icons/tools/materialize.svg

<svg xmlns="http://www.w3.org/2000/svg" style="isolation:isolate" width="256" height="256"><defs><clipPath id="a"><path d="M0 0h256v256H0z"/></clipPath></defs><g stroke-width=".094" clip-path="url(#a)"><path d="M63.151 66.609c.926-1.575 2.131-3.088 3.86-3.829.71-.123 1.42-.062 2.131-.062h34.956c-1.019.865-2.007 1.761-2.686 2.934-1.791 2.934-2.996 6.207-4.107 9.48-3.15 9.882-5.343 20.042-7.473 30.202a726.992 726.992 0 0 0-2.749 13.834c-2.655 15.07-5.404 30.109-8.832 45.024-1.636 6.886-3.304 13.773-5.836 20.412-1.174 2.748-2.316 5.682-4.57 7.72-.525.463-1.05 1.05-1.791.957H35.173c-2.1-.061-4.169.124-6.269-.092 1.39-1.081 2.625-2.378 3.428-3.922 2.316-4.416 3.767-9.202 5.157-13.958 2.162-7.658 3.891-15.409 5.528-23.16 1.019-5.096 2.223-10.16 2.964-15.286.834-5.713 2.1-11.364 3.119-17.046 1.606-8.369 3.304-16.738 5.188-25.045 1.513-6.484 3.057-12.939 5.126-19.269 1.019-3.057 2.131-6.084 3.737-8.894z" fill="#EB7077" vector-effect="non-scaling-stroke" stroke="#EB7077"/><path d="M104.098 62.718c.896 0 1.792-.03 2.687 0 1.976 1.05 3.644 2.718 4.57 4.787 1.236 2.347 2.255 4.817 3.181 7.349 3.088 9.543 5.188 19.363 7.288 29.152 1.791 8.77 3.489 17.571 5.095 26.403.124.463-.031 1.111.587 1.235-2.223 11.611-4.416 23.253-7.195 34.771-1.513 6.207-3.119 12.383-5.404 18.374-1.236 2.996-2.502 6.269-5.127 8.4-1.667.37-2.871-.896-3.89-2.038-1.761-2.255-2.842-4.91-3.891-7.566-3.49-9.511-5.621-19.424-7.782-29.306-1.637-7.689-3.088-15.44-4.602-23.16-.679-3.922-1.605-7.782-2.13-11.704-.093-.062-.309-.185-.402-.247a726.992 726.992 0 0 1 2.749-13.834c2.13-10.16 4.323-20.32 7.473-30.202 1.111-3.273 2.316-6.546 4.107-9.48.679-1.173 1.667-2.069 2.686-2.934z" fill="#F6A2AD" vector-effect="non-scaling-stroke" stroke="#F6A2AD"/><path d="M142.73 68.061c1.112-2.131 2.47-4.509 4.879-5.312 12.26-.061 24.519-.031 36.779-.031-1.143 1.143-2.347 2.286-3.119 3.737-2.378 4.261-3.767 8.986-5.188 13.649-3.644 12.846-6.207 25.971-8.647 39.095-2.254 12.939-4.662 25.878-7.411 38.755-1.42 6.485-2.903 12.939-4.786 19.331-1.205 3.953-2.471 7.937-4.447 11.611-.957 1.668-2.069 3.49-3.891 4.355-11.704.092-23.438 0-35.142.03-.649 0-1.328 0-1.977-.092 2.625-2.131 3.891-5.404 5.127-8.4 2.285-5.991 3.891-12.167 5.404-18.374 2.779-11.518 4.972-23.16 7.195-34.771 2.687-14.977 5.497-29.954 9.079-44.746 1.667-6.392 3.273-12.877 6.145-18.837z" fill="#EB7077" vector-effect="non-scaling-stroke" stroke="#EB7077"/><path d="M184.388 62.718c.988 0 2.007-.03 2.995 0 1.606.834 2.749 2.255 3.768 3.706 1.667 2.656 2.717 5.651 3.798 8.585 2.563 7.874 4.478 15.965 6.238 24.056 2.347 10.901 4.385 21.863 6.392 32.826.494 2.625.988 5.28 1.297 7.936l.463.463c-1.111 1.544-1.544 3.397-2.161 5.157-1.946 6.269-3.212 12.754-4.293 19.208-.833 5.065-1.976 10.098-3.551 14.977-1.173 3.613-2.594 7.195-4.941 10.222-1.111 1.451-2.625 2.563-4.292 3.304-2.563.278-4.076-2.193-5.312-4.015-2.563-4.477-3.952-9.48-5.435-14.359-4.879-18.065-8.059-36.563-11.487-54.937a.811.811 0 0 0-.433-.648c2.44-13.124 5.003-26.249 8.647-39.095 1.421-4.663 2.81-9.388 5.188-13.649.772-1.451 1.976-2.594 3.119-3.737zM0 132.972c.803-.062 1.606-.186 2.44-.186h33.659c1.421.186 2.903.062 4.262.68a12.14 12.14 0 0 1 5.033 3.86c.155-.093.433-.34.587-.463-.741 5.126-1.945 10.19-2.964 15.286-1.637 7.751-3.366 15.502-5.528 23.16-1.39 4.756-2.841 9.542-5.157 13.958-.803 1.544-2.038 2.841-3.428 3.922-.525.092-.926-.278-1.359-.556-1.451-.926-2.285-2.532-3.18-3.984-4.231-9.634-4.694-20.288-7.319-30.355-1.328-5.034-2.964-10.036-5.373-14.668-1.482-2.78-3.304-5.435-5.682-7.566-1.76-1.421-3.798-2.563-5.991-3.088z" fill="#F6A2AD" vector-effect="non-scaling-stroke" stroke="#F6A2AD"/><path d="M212.057 136.183c1.945-2.192 4.848-3.582 7.782-3.458h25.322c3.52.061 7.072-.124 10.592.092-1.05.711-2.316.988-3.428 1.575-3.86 1.76-7.164 4.694-9.264 8.369-3.366 5.867-4.539 12.599-5.528 19.208-.988 6.484-.957 13.186-3.057 19.485-1.42 4.416-3.582 8.863-7.318 11.766-11.612.123-23.223.031-34.803.061-.772 0-1.513.031-2.254-.123 1.667-.741 3.181-1.853 4.292-3.304 2.347-3.027 3.768-6.609 4.941-10.222 1.575-4.879 2.718-9.912 3.551-14.977 1.081-6.454 2.347-12.939 4.293-19.208.617-1.76 1.05-3.613 2.161-5.157.927-1.358 1.544-2.933 2.718-4.107z" fill="#EB7077" vector-effect="non-scaling-stroke" stroke="#EB7077"/></g></svg>

<?xml version="1.0" standalone="no"?><!-- Generator: Gravit.io --><svg xmlns="http://www.w3.org/2000/svg" xmlns:xlink="http://www.w3.org/1999/xlink" style="isolation:isolate" viewBox="0 0 256 256" width="256" height="256"><defs><clipPath id="_clipPath_OcIMM8omfQxteVMDTWjNATtKYDjrbRiw"><rect width="256" height="256"/></clipPath></defs><g clip-path="url(#_clipPath_OcIMM8omfQxteVMDTWjNATtKYDjrbRiw)"><g><g><path d=" M 63.151 66.609 C 64.077 65.034 65.282 63.521 67.011 62.78 C 67.721 62.657 68.431 62.718 69.142 62.718 L 104.098 62.718 C 103.079 63.583 102.091 64.479 101.412 65.652 C 99.621 68.586 98.416 71.859 97.305 75.132 C 94.155 85.014 91.962 95.174 89.832 105.334 C 88.874 109.935 87.948 114.567 87.083 119.168 C 84.428 134.238 81.679 149.277 78.251 164.192 C 76.615 171.078 74.947 177.965 72.415 184.604 C 71.241 187.352 70.099 190.286 67.845 192.324 C 67.32 192.787 66.795 193.374 66.054 193.281 L 35.173 193.281 C 33.073 193.22 31.004 193.405 28.904 193.189 C 30.294 192.108 31.529 190.811 32.332 189.267 C 34.648 184.851 36.099 180.065 37.489 175.309 C 39.651 167.651 41.38 159.9 43.017 152.149 C 44.036 147.053 45.24 141.989 45.981 136.863 C 46.815 131.15 48.081 125.499 49.1 119.817 C 50.706 111.448 52.404 103.079 54.288 94.772 C 55.801 88.288 57.345 81.833 59.414 75.503 C 60.433 72.446 61.545 69.419 63.151 66.609 Z " fill="rgb(235,112,119)" vector-effect="non-scaling-stroke" stroke-width="0.094" stroke="rgb(235,112,119)" stroke-linejoin="miter" stroke-linecap="butt" stroke-miterlimit="4"/><path d=" M 104.098 62.718 C 104.994 62.718 105.89 62.688 106.785 62.718 C 108.761 63.768 110.429 65.436 111.355 67.505 C 112.591 69.852 113.61 72.322 114.536 74.854 C 117.624 84.397 119.724 94.217 121.824 104.006 C 123.615 112.776 125.313 121.577 126.919 130.409 C 127.043 130.872 126.888 131.52 127.506 131.644 C 125.283 143.255 123.09 154.897 120.311 166.415 C 118.798 172.622 117.192 178.798 114.907 184.789 C 113.671 187.785 112.405 191.058 109.78 193.189 C 108.113 193.559 106.909 192.293 105.89 191.151 C 104.129 188.896 103.048 186.241 101.999 183.585 C 98.509 174.074 96.378 164.161 94.217 154.279 C 92.58 146.59 91.129 138.839 89.615 131.119 C 88.936 127.197 88.01 123.337 87.485 119.415 C 87.392 119.353 87.176 119.23 87.083 119.168 C 87.948 114.567 88.874 109.935 89.832 105.334 C 91.962 95.174 94.155 85.014 97.305 75.132 C 98.416 71.859 99.621 68.586 101.412 65.652 C 102.091 64.479 103.079 63.583 104.098 62.718 Z " fill="rgb(246,162,173)" vector-effect="non-scaling-stroke" stroke-width="0.094" stroke="rgb(246,162,173)" stroke-linejoin="miter" stroke-linecap="butt" stroke-miterlimit="4"/><path d=" M 142.73 68.061 C 143.842 65.93 145.2 63.552 147.609 62.749 C 159.869 62.688 172.128 62.718 184.388 62.718 C 183.245 63.861 182.041 65.004 181.269 66.455 C 178.891 70.716 177.502 75.441 176.081 80.104 C 172.437 92.95 169.874 106.075 167.434 119.199 C 165.18 132.138 162.772 145.077 160.023 157.954 C 158.603 164.439 157.12 170.893 155.237 177.285 C 154.032 181.238 152.766 185.222 150.79 188.896 C 149.833 190.564 148.721 192.386 146.899 193.251 C 135.195 193.343 123.461 193.251 111.757 193.281 C 111.108 193.281 110.429 193.281 109.78 193.189 C 112.405 191.058 113.671 187.785 114.907 184.789 C 117.192 178.798 118.798 172.622 120.311 166.415 C 123.09 154.897 125.283 143.255 127.506 131.644 C 130.193 116.667 133.003 101.69 136.585 86.898 C 138.252 80.506 139.858 74.021 142.73 68.061 Z " fill="rgb(235,112,119)" vector-effect="non-scaling-stroke" stroke-width="0.094" stroke="rgb(235,112,119)" stroke-linejoin="miter" stroke-linecap="butt" stroke-miterlimit="4"/><path d=" M 184.388 62.718 C 185.376 62.718 186.395 62.688 187.383 62.718 C 188.989 63.552 190.132 64.973 191.151 66.424 C 192.818 69.08 193.868 72.075 194.949 75.009 C 197.512 82.883 199.427 90.974 201.187 99.065 C 203.534 109.966 205.572 120.928 207.579 131.891 C 208.073 134.516 208.567 137.171 208.876 139.827 C 209 139.951 209.247 140.198 209.339 140.29 C 208.228 141.834 207.795 143.687 207.178 145.447 C 205.232 151.716 203.966 158.201 202.885 164.655 C 202.052 169.72 200.909 174.753 199.334 179.632 C 198.161 183.245 196.74 186.827 194.393 189.854 C 193.282 191.305 191.768 192.417 190.101 193.158 C 187.538 193.436 186.025 190.965 184.789 189.143 C 182.226 184.666 180.837 179.663 179.354 174.784 C 174.475 156.719 171.295 138.221 167.867 119.847 C 167.836 119.57 167.682 119.322 167.434 119.199 C 169.874 106.075 172.437 92.95 176.081 80.104 C 177.502 75.441 178.891 70.716 181.269 66.455 C 182.041 65.004 183.245 63.861 184.388 62.718 Z " fill="rgb(246,162,173)" vector-effect="non-scaling-stroke" stroke-width="0.094" stroke="rgb(246,162,173)" stroke-linejoin="miter" stroke-linecap="butt" stroke-miterlimit="4"/><path d=" M 0 132.972 C 0.803 132.91 1.606 132.786 2.44 132.786 L 36.099 132.786 C 37.52 132.972 39.002 132.848 40.361 133.466 C 42.337 134.269 44.097 135.627 45.394 137.326 C 45.549 137.233 45.827 136.986 45.981 136.863 C 45.24 141.989 44.036 147.053 43.017 152.149 C 41.38 159.9 39.651 167.651 37.489 175.309 C 36.099 180.065 34.648 184.851 32.332 189.267 C 31.529 190.811 30.294 192.108 28.904 193.189 C 28.379 193.281 27.978 192.911 27.545 192.633 C 26.094 191.707 25.26 190.101 24.365 188.649 C 20.134 179.015 19.671 168.361 17.046 158.294 C 15.718 153.26 14.082 148.258 11.673 143.626 C 10.191 140.846 8.369 138.191 5.991 136.06 C 4.231 134.639 2.193 133.497 0 132.972 Z " fill="rgb(246,162,173)" vector-effect="non-scaling-stroke" stroke-width="0.094" stroke="rgb(246,162,173)" stroke-linejoin="miter" stroke-linecap="butt" stroke-miterlimit="4"/><path d=" M 212.057 136.183 C 214.002 133.991 216.905 132.601 219.839 132.725 L 245.161 132.725 C 248.681 132.786 252.233 132.601 255.753 132.817 C 254.703 133.528 253.437 133.805 252.325 134.392 C 248.465 136.152 245.161 139.086 243.061 142.761 C 239.695 148.628 238.522 155.36 237.533 161.969 C 236.545 168.453 236.576 175.155 234.476 181.454 C 233.056 185.87 230.894 190.317 227.158 193.22 C 215.546 193.343 203.935 193.251 192.355 193.281 C 191.583 193.281 190.842 193.312 190.101 193.158 C 191.768 192.417 193.282 191.305 194.393 189.854 C 196.74 186.827 198.161 183.245 199.334 179.632 C 200.909 174.753 202.052 169.72 202.885 164.655 C 203.966 158.201 205.232 151.716 207.178 145.447 C 207.795 143.687 208.228 141.834 209.339 140.29 C 210.266 138.932 210.883 137.357 212.057 136.183 Z " fill="rgb(235,112,119)" vector-effect="non-scaling-stroke" stroke-width="0.094" stroke="rgb(235,112,119)" stroke-linejoin="miter" stroke-linecap="butt" stroke-miterlimit="4"/></g></g></g></svg>
